packages/foundations/assets/icons/functional/images/transportation/handcart_12.svg

<svg width="12" height="12" viewBox="0 0 12 12" fill="none" xmlns="http://www.w3.org/2000/svg">
<g clip-path="url(#clip0_2214_7291)">
<path fill-rule="evenodd" clip-rule="evenodd" d="M2.7002 8.39999C3.19725 8.39999 3.6002 8.80293 3.6002 9.29999C3.6002 9.79704 3.19725 10.2 2.7002 10.2C2.20314 10.2 1.8002 9.79704 1.8002 9.29999C1.8002 8.80293 2.20314 8.39999 2.7002 8.39999ZM6.9002 8.39999C7.39725 8.39999 7.8002 8.80293 7.8002 9.29999C7.8002 9.79704 7.39725 10.2 6.9002 10.2C6.40314 10.2 6.0002 9.79704 6.0002 9.29999C6.0002 8.80293 6.40314 8.39999 6.9002 8.39999ZM5.18671 8.84999C5.43524 8.84999 5.63671 9.05146 5.63671 9.29999C5.63671 9.52781 5.44781 9.74999 5.18671 9.74999H4.5002C4.25167 9.74999 4.0502 9.54852 4.0502 9.29999C4.0502 9.07217 4.24119 8.84999 4.5002 8.84999H5.18671ZM8.42213 1.79999C9.28711 1.79999 10.0242 2.41396 10.1884 3.25307C10.589 6.20351 10.7911 7.69239 10.7948 7.71969C10.83 8.00226 10.673 8.22819 10.47 8.33611L9.26852 8.93664C8.97214 9.08484 8.61173 8.9647 8.46354 8.66832C8.32593 8.3931 8.42063 8.02608 8.73187 7.86333L9.5474 7.45499L9.01673 3.51969C8.97963 3.24495 8.75969 2.99927 8.4002 2.99927C8.06882 2.99927 7.80948 2.73136 7.80948 2.39999C7.80948 2.09229 8.05139 1.79999 8.42213 1.79999ZM7.8002 4.19999C8.13157 4.19999 8.4002 4.46862 8.4002 4.79999C8.4002 5.10769 8.14969 5.39595 7.80948 5.40005L7.79959 6.59999C7.80948 7.52817 7.51812 7.79999 6.5996 7.79877H2.99813C2.0561 7.79999 1.7996 7.50816 1.7996 6.59999V5.39595C1.44651 5.39595 1.2002 5.10769 1.2002 4.79999C1.2002 4.49229 1.45414 4.19999 1.7996 4.19999H7.8002ZM6.5996 5.39999H2.9996L3.0002 6.59999H6.60019L6.5996 5.39999Z" fill="#1A1C1F"/>
</g>
<defs>
<clipPath id="clip0_2214_7291">
<rect width="12" height="12" fill="white"/>
</clipPath>
</defs>
</svg>

<svg xmlns="http://www.w3.org/2000/svg" width="12" height="12" fill="none"><g clip-path="url(#a)"><path fill="#1A1C1F" fill-rule="evenodd" d="M2.7 8.4a.9.9 0 1 1 0 1.8.9.9 0 0 1 0-1.8m4.2 0a.9.9 0 1 1 0 1.8.9.9 0 0 1 0-1.8m-1.713.45a.45.45 0 1 1 0 .9H4.5a.45.45 0 0 1-.45-.45c0-.228.191-.45.45-.45zM8.422 1.8a1.8 1.8 0 0 1 1.766 1.453l.607 4.467a.61.61 0 0 1-.325.616l-1.201.6a.6.6 0 0 1-.805-.268.606.606 0 0 1 .268-.805l.815-.408-.53-3.935A.596.596 0 0 0 8.4 3a.6.6 0 1 1 .022-1.2M7.8 4.2a.6.6 0 0 1 .01 1.2L7.8 6.6c.01.928-.282 1.2-1.2 1.199H2.998C2.056 7.8 1.8 7.509 1.8 6.6V5.396a.597.597 0 1 1 0-1.196zM6.6 5.4H3v1.2h3.6z" clip-rule="evenodd"/></g><defs><clipPath id="a"><path fill="#fff" d="M0 0h12v12H0z"/></clipPath></defs></svg>
